markets/ETCBTC.svg

<svg width="42" height="42" viewBox="0 0 42 42" fill="none" xmlns="http://www.w3.org/2000/svg">
<path d="M0 21C0 32.598 9.40202 42 21 42V0C9.40202 0 0 9.40202 0 21Z" fill="#328332"/>
<path d="M21 42C32.598 42 42 32.598 42 21C42 9.40202 32.598 0 21 0V42Z" fill="#F7931A"/>
<path d="M36.977 17.29C36.7794 15.1741 34.9496 14.4622 32.6391 14.2564L32.6472 11.3214L30.8572 11.3196L30.8487 14.1773C30.3781 14.1758 29.8978 14.185 29.4185 14.1939L29.4275 11.3175L27.6373 11.3147L27.629 14.2488C27.2413 14.2557 26.86 14.2632 26.489 14.2619L26.4887 14.2527L24.0188 14.2484L24.0138 16.1562C24.0138 16.1562 25.3367 16.1329 25.3147 16.157C26.04 16.1585 26.2743 16.5788 26.3423 16.942L26.3336 20.2852C26.3833 20.2853 26.4482 20.2879 26.523 20.2973L26.3336 20.2976L26.3205 24.9813C26.2876 25.2084 26.1525 25.5712 25.6451 25.5716C25.6687 25.5916 24.344 25.5698 24.344 25.5698L23.9822 27.702L26.3132 27.7055C26.7464 27.7069 27.1731 27.7151 27.5912 27.7182L27.584 30.6861L29.373 30.6881L29.381 27.7531C29.8723 27.7629 30.3477 27.7673 30.8118 27.7683L30.8029 30.6912L32.5928 30.693L32.6015 27.731C35.613 27.5632 37.7218 26.8098 37.9913 23.9899C38.2092 21.7197 37.1411 20.704 35.4332 20.2925C36.4736 19.767 37.1245 18.8388 36.977 17.29V17.29ZM34.4535 23.6329C34.4496 25.8512 30.642 25.5929 29.4281 25.5923L29.4403 21.6596C30.6547 21.6621 34.4609 21.3197 34.4535 23.6329ZM33.6364 18.0833C33.6307 20.1017 30.456 19.8605 29.446 19.8591L29.4557 16.2937C30.4657 16.2951 33.6423 15.9781 33.6364 18.0833Z" fill="white"/>
<path d="M10.9528 21.4258L5.56218 20.963L10.952 17.9136V21.4258H10.9528ZM10.9528 25.003V30.5692C9.07839 27.6513 7.01229 24.4399 5.34723 21.8405C7.31226 22.9473 9.36392 24.1047 10.9528 25.0038V25.003ZM10.9528 16.9279L5.34723 20.0559L10.9528 11.3576V16.9279V16.9279Z" fill="white"/>
<path d="M16.3431 20.963L10.9525 21.4258V17.9136L16.3423 20.963H16.3431ZM10.9525 25.0038C12.5406 24.1055 14.5914 22.9473 16.5573 21.8405C14.8922 24.4407 12.8261 27.6521 10.9525 30.5684V25.0038V25.0038ZM10.9525 16.9279V11.3576L16.5573 20.0559L10.9525 16.9279V16.9279Z" fill="white" fill-opacity="0.601"/>
<path opacity="0.2" fill-rule="evenodd" clip-rule="evenodd" d="M10.9525 21.4258L16.3423 20.963L10.9525 23.9908V21.4258Z" fill="white"/>
<path opacity="0.603" fill-rule="evenodd" clip-rule="evenodd" d="M10.9524 21.4258L5.56177 20.963L10.9524 23.9908V21.4258Z" fill="white"/>
</svg>

<svg xmlns="http://www.w3.org/2000/svg" width="42" height="42" fill="none"><path fill="#328332" d="M0 21c0 11.598 9.402 21 21 21V0C9.402 0 0 9.402 0 21Z"/><path fill="#F7931A" d="M21 42c11.598 0 21-9.402 21-21S32.598 0 21 0v42Z"/><path fill="#fff" d="M36.977 17.29c-.198-2.116-2.027-2.828-4.338-3.034l.008-2.935-1.79-.001-.008 2.857c-.47-.001-.951.008-1.43.017l.008-2.877-1.79-.002-.008 2.934c-.388.007-.769.014-1.14.013v-.01l-2.47-.004-.005 1.908s1.323-.023 1.3.001c.726.002.96.422 1.028.785l-.008 3.343c.05 0 .114.003.189.012h-.19l-.012 4.684c-.033.227-.169.59-.676.59.024.02-1.301-.001-1.301-.001l-.362 2.132 2.331.003c.433.002.86.01 1.278.013l-.007 2.968 1.789.002.008-2.935c.491.01.967.014 1.43.015l-.008 2.923 1.79.002.008-2.962c3.012-.168 5.12-.921 5.39-3.741.218-2.27-.85-3.286-2.558-3.697 1.04-.526 1.691-1.454 1.544-3.003Zm-2.523 6.343c-.004 2.218-3.812 1.96-5.026 1.96l.012-3.933c1.215.002 5.02-.34 5.013 1.973Zm-.818-5.55c-.005 2.019-3.18 1.777-4.19 1.776l.01-3.565c1.01.001 4.186-.316 4.18 1.79ZM10.953 21.426l-5.39-.463 5.389-3.05v3.513Zm0 3.577v5.566c-1.875-2.918-3.94-6.13-5.606-8.729 1.965 1.107 4.017 2.265 5.606 3.164v-.001Zm0-8.075-5.606 3.128 5.606-8.698v5.57Z"/><path fill="#fff" fill-opacity=".601" d="m16.343 20.963-5.39.463v-3.512l5.39 3.049Zm-5.39 4.04a3345.43 3345.43 0 0 1 5.604-3.163c-1.665 2.6-3.73 5.812-5.604 8.728v-5.564Zm0-8.075v-5.57l5.604 8.698-5.604-3.128Z"/><path fill="#fff" fill-rule="evenodd" d="m10.953 21.426 5.39-.463-5.39 3.028v-2.565Z" clip-rule="evenodd" opacity=".2"/><path fill="#fff" fill-rule="evenodd" d="m10.952 21.426-5.39-.463 5.39 3.028v-2.565Z" clip-rule="evenodd" opacity=".603"/></svg>
